X:607
%%etbk:tnset id:347,pos:1,rep:3x,ant:
T: Coorie Doon
Z: Piano Box Version by Martin Fleischmann
H: Created 2014-08-30 /  Last Modified 2014-08-30
R: song
M: 3/4
L: 1/4
K: Fmaj
C/C/|:F2F/F/|A2A/A/|c2d|c2A|G2G|A2G|F3-|1-F2C/C/:|2-F2c||
|:c2A|F2A|c2f|d2c|A2A|c-BG|F3|-F2C|
F2F|A2A|c2d|c2A|G2G|A2G|F3-|1-F2c:|2-F3||


